X: 13538
T: Flowers Of The Red Mill, The
R: reel
M: 4/4
K: Adorian
gfdc AFFE|F2cF dFcf|gfdc AFFG|(3ABc dc AG~G2|
gfdc AFFE|~F3c dFcf|gfdc AFFG|Afdc AG~G2||
g2ga ~f3c|dfcf dfc2|~g3a ~f3c|dfcA AG~G2|
~g3a ~f3c|dfcf defg|gagf fdcd|fdcA AG~G2||
aged BGGF|G2dG eGdg|aged BGGA|(3Bcd ed BA~A2|
aged BGGF|~G3d eGdg|aged BGGA|Bged BA~A2||
a2ab ~g3d|egdg egd2|~a3b ~g3d|egdB BA~A2|
~a3b ~g3d|egdg efga|abag gede|gedB BA~A2||

